X:87
T:I Have a House of My Own with a Chimney Built on Top of It
R:slip jig
C:Martin "Junior" Crehan (1908-1998)
H:This is the longest tune title in my collection!
H:Also in Bm #85
D:Paddy O'Brien
Z:hn-slipjig-87
M:9/8
L:1/8
K:Am
AGE EDE ~E3 | AGE EDE GAB | AGE EDE ~E3 |1 EDE GAB AGE :|2 EDE GAB AGA ||
Bdd d2B ~d3 | edB edB dBA | Bdd d2B d2B | AGA B2A GED |
Bdd d2B ~d3 | edB edB dBd | ege dBA B2G | AGA B2A GED ||
P:variations
|: AGE EDE E2B | AGE EDE GAB | AGE EDE ~E3 | EDE G2B AGE :|
~B3 d2B d2B | edB edB dBA | BAB dBd edB | AGA B2A GED |
BAB d2B d2B | edB edB dBA | edB dBA ~B3 | AGA B2A GED ||
<end>
<start>
